X: 64
T: Debka Katsir
C: Chaim Keinan 1959
O: Israel
M: 2/4
L: 1/8
Q: 1/4=180
K: F
P:A
|: C2 F2|F2 GA|Bc A2|A2 z2|BA G2|G3 F|G2 A2| G2 F2 |
   C2 F2|F2 GA|Bc A2|A2 z2|Bc AG|GA B2|A2 G2|F2 z2:|
   F2 B2|A3 G |A3 B |AG F2|z2 GA|Bc A2|A3 F |G2 z2|
   F2 B2|B2 cB|A3 B |AG F2|z2 G2|AB cB|A2 GF|G2 z2|



